assets/icons/24px/outline/graph-line-up-24px.svg

<svg width="24" height="24" viewBox="0 0 24 24" fill="none" xmlns="http://www.w3.org/2000/svg">
<path d="M3 3V17C3 18.8856 3 19.8284 3.58579 20.4142C4.17157 21 5.11438 21 7 21H21M6.5 17L6.99835 15.6711C7.28715 14.9009 7.43155 14.5159 7.65149 14.3429C7.94178 14.1146 8.33426 14.0649 8.6723 14.2136C8.92841 14.3263 9.16425 14.6632 9.63593 15.337V15.337C10.1638 16.0912 10.4278 16.4683 10.6998 16.5796C11.0588 16.7265 11.4703 16.6525 11.7557 16.3899C11.9719 16.1909 12.0881 15.7455 12.3205 14.8547L13.5643 10.0868C13.8279 9.07622 13.9598 8.57095 14.1965 8.36734C14.4972 8.10871 14.9224 8.05227 15.2802 8.22347C15.5619 8.35826 15.8209 8.81164 16.3391 9.71841V9.71841C16.9348 10.7609 17.2326 11.2821 17.5316 11.4153C17.9112 11.5844 18.3558 11.5012 18.6485 11.2062C18.8789 10.9738 18.968 10.3801 19.1461 9.19274L20 3.5" stroke="white" stroke-width="2" stroke-linecap="round" stroke-linejoin="round"/>
</svg>

<svg width="24" height="24" fill="none" xmlns="http://www.w3.org/2000/svg"><path d="M3 3v14c0 1.886 0 2.828.586 3.414C4.172 21 5.114 21 7 21h14M6.5 17l.498-1.329c.29-.77.434-1.155.653-1.328a1 1 0 0 1 1.021-.13c.256.113.492.45.964 1.124.528.754.792 1.131 1.064 1.243a1 1 0 0 0 1.056-.19c.216-.2.332-.645.564-1.535l1.244-4.768c.264-1.01.396-1.516.633-1.72a1 1 0 0 1 1.083-.144c.282.135.54.589 1.06 1.495.595 1.043.893 1.564 1.192 1.697a1 1 0 0 0 1.116-.209c.23-.232.32-.826.498-2.013L20 3.5" stroke="#fff" stroke-width="2" stroke-linecap="round" stroke-linejoin="round"/></svg>
